X:1
T:KILLIECRANKIE
M:C
L:1/8
Q:80
C:Traditional
S:March
K:HP
[| {ag}a2-aA{GAG}A2{g}B3/2c/2 | \
{Gdc}d2{e}G2{g}G{d}G-G3/2{gf}g/2 | \
{a}f2-fa{f}gf{g}ed |
{gfg}f2{g}e2{A}e2{g}f3/2g/2 | \
{ag}a2-aA{GAG}A2{g}B3/2c/2 | \
{Gdc}d2{e}G2{g}G{d}Ga3/2g/2{a}f3/2g/2af{gef}e2-ed |
{e}B2{Gdc}d2{gdc}d2-d3/2e/2|] [ | \
{g}f4{gfg}f2{g}ed | \
{gf}g4{f}g2d3/2e/2 |
{gfg}f4{gf}gf{g}ed | \
{gfg}f2e2{A}e2{g}d3/2e/2 | \
{g}f4{gfg}f2{g}ed |
{gf}g4{f}g2a3/2g/2 | \
{a}f3/2g/2af{gef}e2-ed | \
{g}B2{Gdc}d2{gdc}d2-d2|]
